FX Profiles/Astia_01.pp3
[Version]
AppVersion=5.0-r1-gtk3
Version=326

[Exposure]
Auto=false
Clip=0.02
Compensation=0
Brightness=0
Contrast=0
Saturation=0
Black=0
HighlightCompr=0
HighlightComprThreshold=33
ShadowCompr=50
CurveMode=Standard
CurveMode2=Standard
Curve=1;0.0071174400000000001;0;0.090969999999999995;0.066819999999999935;0.18861;0.23320000000000016;0.29893000000000003;0.46786999999999984;0.44128000000000001;0.7007400000000007;0.58006999999999997;0.83586000000000027;0.78292000000000006;0.93806000000000023;1;0.985765;
Curve2=2;0.25;0.5;0.75;53;-29;10;-37;

[HLRecovery]
Enabled=false
Method=Blend

[Black & White]
Enabled=false
Method=Desaturation
Auto=false
ComplementaryColors=true
Setting=NormalContrast
Filter=None
MixerRed=43
MixerOrange=33
MixerYellow=33
MixerGreen=33
MixerCyan=33
MixerBlue=30
MixerMagenta=33
MixerPurple=33
GammaRed=0
GammaGreen=0
GammaBlue=0
Algorithm=SP
LuminanceCurve=0;
BeforeCurveMode=Standard
AfterCurveMode=Standard
BeforeCurve=0;
AfterCurve=0;

[Sharpening]
Enabled=true
Method=usm
Radius=0.59999999999999998
Amount=200
Threshold=20;80;2000;1200;
OnlyEdges=false
EdgedetectionRadius=1.8999999999999999
EdgeTolerance=1800
HalocontrolEnabled=false
HalocontrolAmount=85
DeconvRadius=0.75
DeconvAmount=75
DeconvDamping=20
DeconvIterations=30

[Directional Pyramid Denoising]
Enabled=true
Enhance=false
Median=false
Auto=false
Luma=0
Ldetail=0
Chroma=15
Method=Lab
LMethod=SLI
CMethod=MAN
C2Method=AUTO
SMethod=shal
MedMethod=soft
RGBMethod=soft
MethodMed=Lonly
Redchro=0
Bluechro=0
Gamma=1.7
Passes=1
LCurve=1;0.050000000000000003;0.14999999999999999;0.34999999999999998;0.34999999999999998;0.55000000000000004;0.040000000000000001;0.34999999999999998;0.34999999999999998;
CCCurve=1;0.050000000000000003;0.5;0.34999999999999998;0.34999999999999998;0.34999999999999998;0.050000000000000003;0.34999999999999998;0.34999999999999998;

[HSV Equalizer]
HCurve=1;0;0.49399999999999999;0.34999999999999998;0.34999999999999998;0.16667000000000001;0.505;0.34999999999999998;0.34999999999999998;0.33333000000000002;0.498;0.34999999999999998;0.34999999999999998;0.5;0.53000000000000003;0.34999999999999998;0.34999999999999998;0.66666999999999998;0.497;0.34999999999999998;0.34999999999999998;0.83333000000000002;0.46999999999999997;0.34999999999999998;0.34999999999999998;
SCurve=1;0;0.45500000000000002;0.34999999999999998;0.34999999999999998;0.16667000000000001;0.46999999999999997;0.34999999999999998;0.34999999999999998;0.33333000000000002;0.53000000000000003;0.34999999999999998;0.34999999999999998;0.5;0.5;0.34999999999999998;0.34999999999999998;0.66666999999999998;0.46999999999999997;0.34999999999999998;0.34999999999999998;0.83333000000000002;0.44500000000000001;0.34999999999999998;0.34999999999999998;
VCurve=1;0;0.59999999999999998;0.34999999999999998;0.34999999999999998;0.16667000000000001;0.39000000000000001;0.34999999999999998;0.34999999999999998;0.33333000000000002;0.38;0.34999999999999998;0.34999999999999998;0.5;0.65000000000000002;0.34999999999999998;0.34999999999999998;0.66666999999999998;0.69999999999999996;0.34999999999999998;0.34999999999999998;0.83333000000000002;0.69999999999999996;0.34999999999999998;0.34999999999999998;

[RAW]
CAAutoStrength=2
